X:1
T:Title
%%score { ( 1 4 ) | ( 2 3 ) }
L:1/8
Q:1/4=113
M:6/8
K:Ab
V:1 treble nm="Grand Piano"
V:4 treble 
V:2 bass 
V:3 bass 
V:1
 [Ec]3 [=D_c][E=c][Fd] | [Ec]3- [Ec]2 [=EG] | [=EB]2 [FA] [_EG]2 [DF] | [CE]3 [CA]3 | c3 dc[EB] | %5
w: R.~Frank~Lehman * * *|||||
 [Ee]3 [EA]3 | [=Dc]2 [DB] D-[DG][DA] | [EB]6 | [Ec]3 [=D_c][E=c][Fd] | [Ec]3- [Ec]2 [Ad] | %10
w: |||||
 [Ae]2 [B=e] [=Af]2 [Fc] | [Fe]3 [Fd]3 | F3 [Fc]2 [FB] | [EA]3 [Ee]3 | [EG]2 [Fd] [Ec]2 [DB] | %15
w: |||||
 [A,CA]6 | z [de][de] [Gde][Gde][Gde] | z [ce][ce] [Ace][ce][Ace] | z [de][Gde] [Gde][de][Gde] | %19
w: ||||
 z [ce][Ace] [Ace][ce][ce] | [A,FA]3 [A,EG]2 [A,DF] | [A,CE]3 [CA]3 | [=Dc]2 [DB] D-[DG][DA] | %23
w: ||||
 [EB]6 | z DD d'c'[Bb] | [cc']3 .[Aa]3 | .[Ee]3 .[Gg]3 | .[cc']3[K:bass][K:treble] z3[K:bass] | %28
w: |||||
 [FB]3 [F_c]2 [Fc] | [Ec]2 [EB] [Ee]2 [Fd] | [Ec]3 [DB]3 | [CA]6 |] %32
w: ||||
V:2
 [A,,A,]3 [A,,A,]2 [A,,A,] | [A,,A,]3- [A,,A,]2 [C,B,] | [D,G,]2 [D,A,] [D,A,]2 [D,A,] | %3
 [A,,A,]3 [A,,E,]3 | z3 .B,3 | [C,A,]3 [C,A,]3 | [B,,A,]2 [B,,A,] z G,[B,,F,] | [E,G,]6 | %8
 [A,,A,]3 [A,,A,]2 [A,,A,] | [A,,A,]3- [A,,A,]2 [A,B,] | [A,C]2 [_G,B,] [F,C]2 [F,=A,] | %11
 [B,,B,]3 [B,,B,]3 | [D,B,]3 [D,D]2 [D,D] | [E,C]3 [C,A,]3 | [E,B,]2 [E,B,] [E,G,]2 [E,G,] | A,,6 | %16
 z[K:treble] GG DCB, | z AA z A[K:bass]F, | z GF, z[K:treble] GD | z AB, z AA | D,3 D,2 D, | %21
 A,,3 [A,,E,]3 | [B,,A,]2 [B,,A,] z G,[B,,F,] | [E,G,]6 | %24
 E,,[E,G,][E,G,][K:treble] [E,G,DB][E,G,DA][K:bass][E,G,D] | A,,E,E, [E,A,C][E,A,][E,A,C] | %26
 E,,E,[E,G,D] [E,G,D][E,G,][E,G,D] | .[C,,C,]2 [=E,,=E,] .[F,,F,]3 | [D,A,]3 [=D,A,]2 [D,A,] | %29
 [E,A,]2 [D,G,] [C,A,]2 [D,A,] | [E,A,]3 [E,G,]3 | [A,,A,]6 |] %32
V:3
 x6 | x6 | x6 | x6 | [A,E]3 [E,E]-[E,A,E][D,G,] | x6 | z3 .B,,3 | x6 | x6 | x6 | x6 | x6 | x6 | %13
 x6 | x6 | x6 | E,3[K:treble] z3 | C3 .A,3[K:bass] | .E,3 .G,3[K:treble] | .C3 .A,3 | x6 | x6 | %22
 z3 .B,,3 | x6 | x3[K:treble] x2[K:bass] x | x6 | x6 | x6 | x6 | x6 | x6 | x6 |] %32
V:4
 x6 | x6 | x6 | x6 | x6 | x6 | z3 .[A,F]3 | x6 | x6 | x6 | x6 | x6 | x6 | x6 | x6 | x6 | x6 | x6 | %18
 x6 | x6 | x6 | x6 | z3 .[A,F]3 | x6 | [Ee]3 z3 | z [A,C][A,C] z C[Ff] | z [G,D][Ff] z D[dd'] | %27
 z[K:bass] [=D,,=D,][K:treble][Bb] [Aa]2[K:bass] [E,,E,] | x6 | x6 | x6 | x6 |] %32

